X:4852
L:1/8
M:6/8
K:G
 d | g2 d ded | B2 G G2 A | B2 G c2 e | B3 A2 d | B2 G GAB | AB^c d2 B | A2 d e2 f | d2 z z2 d | 
 ded f2 f | e2 c cdB | A2 a abg | !fermata!g3 !fermata!f2 d | g2 d B2 g | ABG !fermata!a2 g | 
 f2 d def g2 z z2 d | g2 g a2 g | e2 z z2 e | a2 a c'2 b | !fermata!g3 !fermata!f2 d | g2 e dBG | 
 ABA !fermata!a3 g | e2 e efd | g3 z |][M:2/4][K:G] GDGA | B>A G2 | de/f/ gd | d/e/d/c/ B2 :| 
 dd/d/ ee/d/ | c/B/c/A/ d2 | (G/A/)(B/c/) d/g/e/a/ | e/c/A/c/ G2 :|

